packages/tokens/icons/saml/size48Px.svg

<svg viewBox="0 0 48 48" fill="none" xmlns="http://www.w3.org/2000/svg" width="1em" height="1em"><path d="M37.3269 45L36.9707 45.3508C37.0647 45.4463 37.193 45.5 37.3269 45.5V45ZM37.3269 45L37.327 45.5H37.3272H37.3275H37.328H37.3285H37.3293H37.3301H37.3311H37.3322H37.3334H37.3347H37.3362H37.3378H37.3395H37.3413H37.3433H37.3454H37.3476H37.3499H37.3524H37.355H37.3577H37.3605H37.3634H37.3665H37.3696H37.3729H37.3763H37.3798H37.3835H37.3872H37.3911H37.3951H37.3992H37.4034H37.4077H37.4122H37.4167H37.4214H37.4261H37.431H37.436H37.4411H37.4463H37.4517H37.4571H37.4626H37.4683H37.474H37.4799H37.4859H37.4919H37.4981H37.5044H37.5108H37.5173H37.5238H37.5305H37.5373H37.5442H37.5512H37.5583H37.5655H37.5728H37.5802H37.5877H37.5953H37.603H37.6108H37.6187H37.6266H37.6347H37.6429H37.6511H37.6595H37.668H37.6765H37.6851H37.6939H37.7027H37.7116H37.7206H37.7297H37.7389H37.7482H37.7575H37.767H37.7765H37.7861H37.7958H37.8056H37.8155H37.8255H37.8355H37.8457H37.8559H37.8662H37.8766H37.887H37.8976H37.9082H37.9189H37.9297H37.9406H37.9515H37.9626H37.9737H37.9848H37.9961H38.0074H38.0189H38.0303H38.0419H38.0535H38.0653H38.077H38.0889H38.1008H38.1129H38.1249H38.1371H38.1493H38.1616H38.1739H38.1864H38.1989H38.2114H38.2241H38.2368H38.2495H38.2624H38.2753H38.2882H38.3013H38.3144H38.3275H38.3407H38.354H38.3674H38.3808H38.3943H38.4078H38.4214H38.435H38.4487H38.4625H38.4763H38.4902H38.5042H38.5182H38.5322H38.5463H38.5605H38.5747H38.589H38.6033H38.6177H38.6322H38.6467H38.6612H38.6758H38.6904H38.7051H38.7199H38.7347H38.7495H38.7644H38.7794H38.7943H38.8094H38.8245H38.8396H38.8548H38.87H38.8852H38.9005H38.9159H38.9313H38.9467H38.9622H38.9777H38.9933H39.0089H39.0245H39.0402H39.0559H39.0717H39.0875H39.1033H39.1192H39.1351H39.1511H39.167H39.183H39.1991H39.2152H39.2313H39.2475H39.2636H39.2799H39.2961H39.3124H39.3287H39.345H39.3614H39.3778H39.3942H39.4107H39.4272H39.4437H39.4602H39.4768H39.4934H39.51H39.5266H39.5433H39.56H39.5767H39.5934H39.6102H39.627H39.6438H39.6606H39.6774H39.6943H39.7112H39.7281H39.745H39.7619H39.7789H39.7958H39.8128H39.8298H39.8469H39.8639H39.8809H39.898H39.9151H39.9322H39.9492H39.9664H39.9835H40.0006H40.0178H40.0349H40.0521H40.0693H40.0864H40.1036H40.1208H40.138H40.1552H40.1724H40.1897H40.2069H40.2241H40.2414H40.2586H40.2758H40.2931H40.3103H40.3276H40.3448H40.3621H40.3793H40.3966H40.4138H40.4311H40.4483H40.4656H40.4828H40.5H40.5173H40.5345H40.5517H40.5689H40.5861H40.6033H40.6205H40.6377H40.6549H40.6721H40.6893H40.7064H40.7236H40.7407H40.7578H40.7749H40.792H40.8091H40.8262H40.8433H40.8603H40.8774H40.8944H40.9114H40.9284H40.9453H40.9623H40.9792H40.9962H41.0131H41.0299H41.0468H41.0637H41.0805H41.0973H41.1141H41.1308H41.1476H41.1643H41.181H41.1977H41.2143H41.2309H41.2475H41.2641H41.2806H41.2972H41.3137H41.3301H41.3465H41.363H41.3793H41.3957H41.412H41.4283H41.4445H41.4608H41.477H41.4931H41.5092H41.5253H41.5414H41.5574H41.5734H41.5894H41.6053H41.6212H41.637H41.6528H41.6686H41.6843H41.7H41.7157H41.7313H41.7468H41.7624H41.7779H41.7933H41.8087H41.8241H41.8394H41.8547H41.8699H41.8851H41.9002H41.9153H41.9304H41.9454H41.9603H41.9752H41.9901H42.0049H42.0196H42.0343H42.049H42.0636H42.0782H42.0927H42.1071H42.1215H42.1359H42.1502H42.1644H42.1786H42.1927H42.2068H42.2208H42.2347H42.2486H42.2625H42.2763H42.29H42.3037H42.3173H42.3308H42.3443H42.3577H42.3711H42.3844H42.3976H42.4108H42.4239H42.437H42.4499H42.4629H42.4757H42.4885H42.5012H42.5139H42.5264H42.539H42.5514H42.5638H42.5761H42.5883H42.6005H42.6126H42.6246H42.6366H42.6484H42.6602H42.672H42.6836H42.6952H42.7067H42.7182H42.7295H42.7408H42.752H42.7631H42.7742H42.7851H42.796H42.8068H42.8176H42.8282H42.8388H42.8493H42.8597H42.87H42.8802H42.8904H42.9005H42.9105H42.9204H42.9302H42.9399H42.9496H42.9591H42.9686H42.978H42.9873H42.9965H43.0056H43.0146H43.0235H43.0324H43.0411H43.0498H43.0584H43.0668H43.0752H43.0835H43.0917H43.0998H43.1078H43.1157H43.1235H43.1312H43.1388H43.1464H43.1538H43.1611H43.1683H43.1754H43.1825H43.1894H43.1962H43.2029H43.2095H43.2161H43.2225H43.2288H43.235H43.2411H43.2471H43.253H43.2587H43.2644H43.27H43.2754H43.2808H43.286H43.2911H43.2962H43.3011H43.3059H43.3106H43.3152H43.3196H43.324H43.3282H43.3323H43.3363H43.3402H43.344H43.3477H43.3512H43.3547H43.358H43.3612H43.3643H43.3672H43.3701H43.3728H43.3754H43.3779H43.3803H43.3825H43.3846C43.9511 45.5 44.4757 45.2218 44.8487 44.8487C45.2218 44.4757 45.5 43.9511 45.5 43.3846V43.3819V43.379V43.376V43.3729V43.3696V43.3663V43.3629V43.3593V43.3556V43.3518V43.3479V43.3439V43.3397V43.3355V43.3311V43.3267V43.3221V43.3174V43.3126V43.3077V43.3027V43.2976V43.2924V43.287V43.2816V43.276V43.2704V43.2646V43.2588V43.2528V43.2468V43.2406V43.2343V43.228V43.2215V43.2149V43.2082V43.2015V43.1946V43.1876V43.1806V43.1734V43.1661V43.1588V43.1513V43.1438V43.1361V43.1284V43.1205V43.1126V43.1046V43.0965V43.0882V43.0799V43.0715V43.0631V43.0545V43.0458V43.0371V43.0282V43.0193V43.0103V43.0011V42.9919V42.9827V42.9733V42.9638V42.9543V42.9447V42.9349V42.9252V42.9153V42.9053V42.8953V42.8851V42.8749V42.8646V42.8543V42.8438V42.8333V42.8227V42.812V42.8012V42.7904V42.7795V42.7685V42.7574V42.7462V42.735V42.7237V42.7123V42.7009V42.6894V42.6778V42.6661V42.6544V42.6426V42.6307V42.6187V42.6067V42.5946V42.5824V42.5702V42.5579V42.5456V42.5331V42.5206V42.5081V42.4954V42.4827V42.47V42.4571V42.4443V42.4313V42.4183V42.4052V42.3921V42.3789V42.3656V42.3523V42.3389V42.3255V42.312V42.2984V42.2848V42.2711V42.2574V42.2436V42.2297V42.2158V42.2019V42.1879V42.1738V42.1597V42.1455V42.1313V42.117V42.1027V42.0883V42.0739V42.0594V42.0449V42.0303V42.0157V42.001V41.9863V41.9715V41.9567V41.9418V41.9269V41.9119V41.8969V41.8819V41.8668V41.8516V41.8365V41.8212V41.806V41.7907V41.7753V41.7599V41.7445V41.729V41.7135V41.698V41.6824V41.6668V41.6511V41.6354V41.6197V41.6039V41.5881V41.5723V41.5564V41.5405V41.5245V41.5086V41.4926V41.4765V41.4605V41.4444V41.4282V41.4121V41.3959V41.3796V41.3634V41.3471V41.3308V41.3145V41.2981V41.2817V41.2653V41.2489V41.2324V41.2159V41.1994V41.1829V41.1663V41.1497V41.1331V41.1165V41.0998V41.0832V41.0665V41.0498V41.0331V41.0163V40.9995V40.9828V40.966V40.9492V40.9323V40.9155V40.8986V40.8817V40.8648V40.8479V40.831V40.8141V40.7971V40.7802V40.7632V40.7462V40.7292V40.7122V40.6952V40.6782V40.6612V40.6441V40.6271V40.6101V40.593V40.5759V40.5589V40.5418V40.5247V40.5076V40.4905V40.4735V40.4564V40.4393V40.4222V40.4051V40.388V40.3709V40.3538V40.3367V40.3196V40.3025V40.2854V40.2683V40.2512V40.2341V40.217V40.1999V40.1829V40.1658V40.1487V40.1317V40.1146V40.0976V40.0805V40.0635V40.0465V40.0295V40.0125V39.9955V39.9785V39.9616V39.9446V39.9277V39.9107V39.8938V39.8769V39.86V39.8431V39.8263V39.8094V39.7926V39.7758V39.759V39.7422V39.7254V39.7087V39.692V39.6752V39.6586V39.6419V39.6252V39.6086V39.592V39.5754V39.5589V39.5423V39.5258V39.5093V39.4929V39.4764V39.46V39.4436V39.4273V39.4109V39.3946V39.3783V39.3621V39.3459V39.3297V39.3135V39.2974V39.2813V39.2652V39.2492V39.2332V39.2172V39.2012V39.1853V39.1695V39.1536V39.1378V39.122V39.1063V39.0906V39.075V39.0593V39.0437V39.0282V39.0127V38.9972V38.9818V38.9664V38.9511V38.9358V38.9205V38.9053V38.8901V38.875V38.8599V38.8448V38.8298V38.8148V38.7999V38.7851V38.7702V38.7555V38.7407V38.7261V38.7114V38.6969V38.6823V38.6678V38.6534V38.639V38.6247V38.6104V38.5962V38.582V38.5679V38.5539V38.5398V38.5259V38.512V38.4981V38.4844V38.4706V38.4569V38.4433V38.4298V38.4163V38.4028V38.3894V38.3761V38.3629V38.3497V38.3365V38.3234V38.3104V38.2975V38.2846V38.2718V38.259V38.2463V38.2337V38.2211V38.2086V38.1962V38.1838V38.1715V38.1593V38.1471V38.135V38.123V38.111V38.0992V38.0874V38.0756V38.0639V38.0523V38.0408V38.0294V38.018V38.0067V37.9955V37.9843V37.9733V37.9623V37.9513V37.9405V37.9297V37.919V37.9084V37.8979V37.8874V37.8771V37.8668V37.8566V37.8464V37.8364V37.8264V37.8166V37.8068V37.7971V37.7874V37.7779V37.7684V37.759V37.7498V37.7406V37.7315V37.7224V37.7135V37.7047V37.6959V37.6872V37.6786V37.6702V37.6618V37.6535V37.6452V37.6371V37.6291V37.6212V37.6133V37.6056V37.5979V37.5904V37.5829V37.5756V37.5683V37.5611V37.5541V37.5471V37.5402V37.5335V37.5268V37.5202V37.5137V37.5074V37.5011V37.4949V37.4889V37.4829V37.477V37.4713V37.4656V37.4601V37.4547V37.4493V37.4441V37.439V37.434V37.4291V37.4243V37.4196V37.415V37.4106V37.4062V37.402V37.3978V37.3938V37.3899V37.3861V37.3824V37.3788V37.3754V37.372V37.3688V37.3657V37.3627V37.3598V37.3571V37.3544V37.3519V37.3495V37.3472V37.345V37.343V37.3411V37.3393V37.3376V37.336V37.3346V37.3332V37.3321V37.331V37.33V37.3292V37.3285V37.3279V37.3275V37.3272V37.327L45 37.3269M37.3269 45L36.9706 45.3508L36.9705 45.3506L36.9699 45.35L36.9675 45.3476L36.9583 45.3383L36.9223 45.3017L36.7854 45.1625C36.6674 45.0423 36.4984 44.8702 36.2945 44.6621C35.8868 44.246 35.3394 43.6859 34.7809 43.1102C34.2226 42.5347 33.6521 41.9426 33.1986 41.4627C32.7618 41.0006 32.3953 40.6032 32.2818 40.4436C32.1301 40.2304 32.0644 39.9979 32.0723 39.7587C32.0798 39.5355 32.1506 39.3312 32.2259 39.16C32.2928 39.0081 32.3791 38.8487 32.4596 38.7C32.4693 38.6822 32.4789 38.6645 32.4883 38.647C32.5808 38.4758 32.6714 38.3043 32.7521 38.1181C32.9298 37.7081 33.0023 37.4506 33.0191 37.2949C33.0216 37.2722 33.0227 37.2539 33.023 37.2392C33.0093 37.2394 32.9921 37.2406 32.9707 37.2434C32.8377 37.2606 32.607 37.3347 32.2487 37.5418L32.2324 37.5512C31.8564 37.7685 31.45 38.0034 31.1088 38.1573C30.9378 38.2345 30.7525 38.3057 30.5775 38.3377C30.4322 38.3642 30.1247 38.3955 29.8869 38.169C29.3985 37.7035 28.9089 37.2377 28.4261 36.7793C28.2186 36.5822 28.1896 36.3205 28.1918 36.1567C28.1943 35.9807 28.234 35.7952 28.2815 35.626C28.3754 35.2914 28.5366 34.8974 28.6825 34.5409L28.6901 34.5224C28.8291 34.1828 28.884 33.9499 28.8928 33.8029C28.8936 33.7895 28.894 33.7775 28.8941 33.7667C28.8356 33.7738 28.7582 33.7888 28.6599 33.8148C28.3667 33.8923 28.0039 34.0345 27.6068 34.191C27.2132 34.3461 26.8604 34.4417 26.5531 34.4581C26.2433 34.4745 25.9221 34.4118 25.677 34.1816C24.7769 33.3366 23.8256 32.2492 23.06 31.3497C22.8846 31.1436 22.7206 30.9494 22.5687 30.7694C22.3842 30.5509 22.2175 30.3535 22.0698 30.1815C21.9363 30.0262 21.8244 29.8987 21.7354 29.8026C21.6909 29.7545 21.6547 29.717 21.6262 29.6892C21.5954 29.6591 21.583 29.6495 21.5847 29.6508C21.141 29.3199 20.6232 29.2197 20.0251 29.2231C19.7244 29.2248 19.4157 29.2524 19.0928 29.2853C19.0462 29.2901 18.9992 29.295 18.9518 29.2999C18.6783 29.3282 18.3925 29.3579 18.1175 29.3706L18.1111 29.3708C17.8239 29.3841 17.5308 29.3976 17.2488 29.3978C11.2082 29.5761 7.48358 27.5007 5.28885 24.5751C3.11527 21.6777 2.5 18.0231 2.5 15.1253C2.5 9.20063 7.43873 2.5 15.504 2.5C19.8102 2.5 23.2726 4.17363 25.5653 6.95394C27.8524 9.72757 28.942 13.5606 28.5981 17.8319C28.5934 17.8906 28.5915 17.9574 28.5898 18.0426C28.5896 18.0534 28.5894 18.0646 28.5892 18.076C28.5879 18.1499 28.5863 18.2354 28.5821 18.3234C28.5322 19.3649 28.4891 20.6156 29.5054 21.6262C32.0983 24.2045 36.0574 28.0386 39.3703 31.2298C41.0263 32.8251 42.5202 34.259 43.6 35.2942C44.1399 35.8117 44.5763 36.2296 44.8777 36.518L45.2246 36.8499L45.3148 36.9361L45.3377 36.9581L45.3435 36.9636L45.345 36.965L45.3453 36.9653C45.3454 36.9654 45.3455 36.9655 45 37.3269M45 37.3269L45.3455 36.9655C45.4442 37.0598 45.5 37.1904 45.5 37.3269H45ZM28.9987 33.7633C28.9986 33.7634 28.997 33.7632 28.9942 33.7626C28.9974 33.7629 28.9988 33.7632 28.9987 33.7633ZM28.8865 33.6865C28.8852 33.6842 28.8848 33.6828 28.8849 33.6827C28.885 33.6826 28.8856 33.6838 28.8865 33.6865ZM33.0688 37.244C33.0685 37.2441 33.0665 37.2436 33.0634 37.242C33.0675 37.243 33.0691 37.2439 33.0688 37.244ZM33.0206 37.1941C33.0193 37.1908 33.0189 37.1889 33.019 37.1887C33.0192 37.1885 33.0198 37.1901 33.0206 37.1941ZM15.004 11.8846C15.004 13.5338 13.6588 14.8755 11.9935 14.8755C10.3282 14.8755 8.98299 13.5338 8.98299 11.8846C8.98299 10.2355 10.3282 8.89378 11.9935 8.89378C13.6588 8.89378 15.004 10.2355 15.004 11.8846Z" stroke="currentColor" stroke-linecap="round" stroke-linejoin="round"/></svg>

<svg xmlns="http://www.w3.org/2000/svg" fill="none" viewBox="0 0 48 48" width="1em" height="1em"><path stroke="currentColor" stroke-linecap="round" stroke-linejoin="round" d="m37.327 45-.356.35a.5.5 0 0 0 .356.15V45Zm0 0v.5h6.058c.566 0 1.09-.278 1.464-.651.373-.373.651-.898.651-1.464v-6.052 0-.003 0-.002 0-.001H45M37.327 45l-.356.35h0-.001l-.002-.002-.01-.01-.036-.036-.137-.14-.49-.5c-.408-.416-.956-.976-1.514-1.552a185.344 185.344 0 0 1-1.582-1.647c-.437-.462-.804-.86-.917-1.02a1.097 1.097 0 0 1-.21-.684c.008-.224.079-.428.154-.599.067-.152.153-.311.234-.46a10.011 10.011 0 0 0 .292-.582c.178-.41.25-.667.267-.823a.628.628 0 0 0 .004-.056.459.459 0 0 0-.052.004c-.133.018-.364.092-.722.299l-.017.01c-.376.217-.782.451-1.123.605a2.388 2.388 0 0 1-.532.18c-.145.027-.452.058-.69-.168l-1.46-1.39c-.208-.197-.237-.459-.235-.622a2.13 2.13 0 0 1 .09-.531c.093-.335.255-.729.4-1.085l.008-.019c.14-.34.194-.572.203-.72a.72.72 0 0 0 .001-.035 1.783 1.783 0 0 0-.234.048c-.293.077-.656.22-1.053.376-.394.155-.747.25-1.054.267-.31.017-.63-.046-.876-.276-.9-.845-1.851-1.933-2.617-2.832-.175-.206-.34-.4-.491-.58a97.369 97.369 0 0 0-.5-.588 14.48 14.48 0 0 0-.334-.38 3.184 3.184 0 0 0-.109-.113.384.384 0 0 0-.041-.038c-.444-.331-.962-.431-1.56-.428-.3.002-.61.03-.932.062l-.141.015c-.274.028-.56.058-.835.07h-.006c-.287.014-.58.028-.862.028-6.04.178-9.765-1.897-11.96-4.823-2.174-2.897-2.789-6.552-2.789-9.45C2.5 9.201 7.439 2.5 15.504 2.5c4.306 0 7.769 1.674 10.061 4.454 2.287 2.774 3.377 6.607 3.033 10.878a3.636 3.636 0 0 0-.009.244c-.001.074-.003.16-.007.247-.05 1.042-.093 2.293.923 3.303 2.593 2.578 6.552 6.413 9.865 9.604a2452.218 2452.218 0 0 0 5.508 5.288l.347.332.09.086.023.022.005.006.002.001h0l-.345.362m0 0 .346-.361a.5.5 0 0 1 .154.36H45Zm-16.001-3.564h-.005H29Zm-.112-.076-.002-.004.002.004Zm4.182 3.557-.006-.002.006.002Zm-.048-.05a.018.018 0 0 1-.002-.005l.002.005Zm-18.017-25.31a3 3 0 0 1-3.01 2.992 3 3 0 0 1-3.011-2.991 3 3 0 0 1 3.01-2.991 3 3 0 0 1 3.011 2.99Z"/></svg>
